localPackages/DesignSystem/Sources/DesignSystem/Resources/Assets.xcassets/IconSet/ic-lock-open-check-filled.imageset/ic-lock-open-check-filled.svg

<svg width="24" height="24" viewBox="0 0 24 24" fill="none" xmlns="http://www.w3.org/2000/svg">
<g id="ic-lock-open-check-filled">
<path id="Icon" fill-rule="evenodd" clip-rule="evenodd" d="M11.4181 3.09355C12.9565 2.75498 14.5514 3.34256 15.5024 4.59834L15.9021 5.12615C16.1522 5.45635 16.6226 5.52131 16.9528 5.27124C17.283 5.02116 17.348 4.55075 17.0979 4.22055L16.6982 3.69274C15.3936 1.97018 13.206 1.16418 11.0957 1.6286C8.55773 2.18714 6.75 4.43596 6.75 7.03465V7.51054C5.73742 7.52426 5.12955 7.58289 4.63803 7.83333C4.07354 8.12095 3.6146 8.57989 3.32698 9.14438C3 9.78611 3 10.6262 3 12.3063V17.6996C3 19.3797 3 20.2198 3.32698 20.8615C3.6146 21.426 4.07354 21.8849 4.63803 22.1726C5.27976 22.4995 6.11984 22.4995 7.8 22.4995H16.2C17.8802 22.4995 18.7202 22.4995 19.362 22.1726C19.9265 21.8849 20.3854 21.426 20.673 20.8615C21 20.2198 21 19.3797 21 17.6996V12.3063C21 10.6262 21 9.78611 20.673 9.14438C20.3854 8.57989 19.9265 8.12095 19.362 7.83333C18.7202 7.50635 17.8802 7.50635 16.2 7.50635H8.25V7.03465C8.25 5.14016 9.56787 3.50073 11.4181 3.09355ZM17.7805 11.4741C18.0733 11.7671 18.0732 12.2419 17.7802 12.5348L11.9923 18.3201C11.5823 18.7299 10.9177 18.7299 10.5077 18.3201L7.71979 15.5334C7.42683 15.2406 7.42672 14.7657 7.71955 14.4727C8.01238 14.1798 8.48725 14.1797 8.78021 14.4725L11.25 16.9412L16.7198 11.4739C17.0127 11.181 17.4876 11.1811 17.7805 11.4741Z" fill="#0F0F0F"/>
</g>
</svg>

<svg xmlns="http://www.w3.org/2000/svg" width="24" height="24" viewBox="0 0 24 24">
  <g class="ic-lock-open-check-filled">
    <path fill-rule="evenodd" d="M11.418 3.095a4.035 4.035 0 0 1 4.084 1.504l.4.528a.75.75 0 0 0 1.196-.905l-.4-.528A5.535 5.535 0 0 0 6.75 7.036v.476c-1.013.013-1.62.072-2.112.322a3 3 0 0 0-1.311 1.311C3 9.787 3 10.627 3 12.307v5.394c0 1.68 0 2.52.327 3.162a3 3 0 0 0 1.311 1.31c.642.328 1.482.328 3.162.328h8.4c1.68 0 2.52 0 3.162-.328a3 3 0 0 0 1.311-1.31C21 20.22 21 19.38 21 17.7v-5.394c0-1.68 0-2.52-.327-3.162a3 3 0 0 0-1.311-1.31c-.642-.328-1.482-.328-3.162-.328H8.25v-.471a4.035 4.035 0 0 1 3.168-3.941Zm6.363 8.38a.75.75 0 0 1 0 1.06l-5.789 5.786a1.05 1.05 0 0 1-1.484 0L7.72 15.534a.75.75 0 0 1 1.06-1.06l2.47 2.468 5.47-5.467a.75.75 0 0 1 1.06 0Z" class="Icon"/>
  </g>
</svg>
